X:21
T:Tom come tickle me
Z:Jack Campin <http://www.campin.me.uk/>
S:MacFarlan MS II #230
N:early version of the tune later called "Trip to Sligo" in Ireland
M:6/8
L:1/8
Q:3/8=120
K:E Dorian
E   |G2e  BGE|F2d AFD|E2e  BGB| AFD  E2:|
c/d/|edc  BGE|dcB AFD|edc  BeG| AFD  E2:|
F   |E>FE BEB|FDF AFA|E>FE BEg|Tf>ed e2:|
g/a/|bge  bge|afd afd|bge  beg|Tf>ed e2:|
